X:1
T:I've found a Friend
T:I've found a Friend
T:Sir Arthur Sullivan (1842-1900)
T:James Grindlay Small (1817-88)
T:public domain - Mutopia-2008/01/04-1203
C:Sir Arthur Sullivan (1842-1900)
Z:James Grindlay Small (1817-88)
Z:public domain - Mutopia-2008/01/04-1203
%%score [ ( 1 2 ) ( 3 4 ) ]
L:1/8
Q:1/4=116
M:3/4
K:F
V:1 treble nm="S\nA"
V:2 treble 
V:3 bass nm="T\nB"
V:4 bass 
V:1
"^Allegretto" A2 | A2 A2 B2 | G2 c3 d | c2 B2 A2 | A2 B2 G2 | G2 F2 z2 | A2 c2 B2 | B2 A2 A3 | %8
w: 1. I've|found a Friend;|O such a|Friend! He loved|me ere I|knew Him;|He drew me|whit the cords|
w: 2. I've|found a Friend;|O such a|Friend! He bled,|He died to|save me;|And not a\-|lone the gift|
w: 3. I've|found a Friend;|O such a|Friend! All power|to Him is|giv\- en,|To guard me|on my on\-|
w: 4. I've|found a Friend;|O such a|Friend! So kind,|and true, and|ten\- der!|So wise a|Coun\- sel\- or|
 G F2 F2 | E2 A2 c2 | =B2 B2 A2 | z2 A2 A2 | (GA) B2 B2 | A2 (GA) B2 | c2 d3 c | B2 A2 A2 | %16
w: of love, And|thus He bound|me to Him:|And round|my * heart still|close\- ly * twine|Those ties which|nought can sev\-|
w: of life, But|His own self|He gave me.|Naught that|I * have mine|own I * call,|I'll hold it|for the Giv\-|
w: ward course, And|bring me safe|to heav\- en.|The e\-|ternal * glor\- ies|gleam a _ far,|To nerve my|faint en\- dea\-|
w: and Guide, So|migh\- ty a|De\- fen\- der!|From Him|who * loves me|now so * well|What power my|soul can se\-|
 G2 z2 c2 | c2 d2 f3 | A A2 A2 | c3 F F2 | F2 A3 G | G2 !fermata!F2!D.C.! |] %22
w: er; For|I am His,|and He is|mine, For ev\-|er and for|ev\- er.|
w: er; My|heart, my strength,|my life, my|all, Are His,|and His for|ev\- er.|
w: vor; So|now to watch,|to work, to|war, And then|to rest for\-|ev\- er.|
w: ver? Shall|life or death,|or earth or|hell? No? I|am His for|ev\- er.|
V:2
 F2 | F2 F2 E2 | E2 F3 F | F2 F2 F2 | F2 E2 E2 | E2 F2 z2 | F2 A2 G2 | G2 F2 E3 | E D2 D2 | %9
 C2 E2 A2 | ^G2 G2 A2 | z2 A2 ^F2 | (E^F) G2 G2 | ^F2 (EF) G2 | A2 B3 A | G2 F2 F2 | E2 z2 E2 | %17
 F2 E2 F3 | F E2 D2 | C3 D C2 | C2 F3 E | E2 F2 |] %22
V:3
[K:Bb] C2 | C2 C2 C2 | C2 C3 B, | C2 D2 C2 | C2 G,2 B,2 | B,2 A,2 z2 | C2 C2 C2 | C2 C2 ^C3 | %8
 ^C D2 A,2 | A,2 C2 =E2 | D2 D2 C2 | z2 A,2 C2 | C2 B,2 D2 | D2 D2 D2 | E2 D3 D | D2 D2 C2 | %16
 C2 z2 C2 | C2 B,2 A,3 | F, F,2 F,2 | F,3 B, A,2 | A,2 C3 B, | B,2 A,2 |] %22
V:4
[K:Bb] F,2 | F,2 F,2 G,2 | B,2 A,3 B, | A,2 B,2 C2 | C,2 C,2 C,2 | C,2 F,2 z2 | F,2 =E,2 E,2 | %7
 F,2 (F,G,) A,3 | A, D,2 D,2 | =E,2 E,2 E,2 | =E,2 E,2 A,,2 | z2 A,2 D,2 | D,2 G,2 (B,,C,) | %13
 D,2 D,2 G,2 | F,2 B,3 B,, | B,,2 =B,,2 C,2 | C,2 z2 B,2 | A,2 G,2 F,3 | D, C,2 B,,2 | %19
 A,,3 B,, C,2 | C,2 C,3 C, | C,2 F,2 |] %22

